communes/180.svg

<?xml version="1.0" encoding="UTF-8" standalone="no"?>
<svg
   xmlns:dc="http://purl.org/dc/elements/1.1/"
   xmlns:cc="http://creativecommons.org/ns#"
   xmlns:rdf="http://www.w3.org/1999/02/22-rdf-syntax-ns#"
   xmlns:svg="http://www.w3.org/2000/svg"
   xmlns="http://www.w3.org/2000/svg"
   xmlns:sodipodi="http://sodipodi.sourceforge.net/DTD/sodipodi-0.dtd"
   xmlns:inkscape="http://www.inkscape.org/namespaces/inkscape"
   version="1.0"
   width="250"
   height="291.61722"
   id="svg2780"
   sodipodi:docname="180.svg">
  <metadata
     id="metadata12">
    <rdf:RDF>
      <cc:Work
         rdf:about="">
        <dc:format>image/svg+xml</dc:format>
        <dc:type
           rdf:resource="http://purl.org/dc/dcmitype/StillImage" />
      </cc:Work>
    </rdf:RDF>
  </metadata>
  <sodipodi:namedview
     pagecolor="#ffffff"
     bordercolor="#666666"
     borderopacity="1"
     objecttolerance="10"
     gridtolerance="10"
     guidetolerance="10"
     inkscape:pageopacity="0"
     inkscape:pageshadow="2"
     inkscape:window-width="640"
     inkscape:window-height="480"
     id="namedview10" />
  <defs
     id="defs2782" />
  <g
     transform="translate(-127.85104,-824.56617)"
     id="layer1">
    <path
       d="M 129.67156,825.56617 L 134.16172,1014.1542 C 137.36898,1148.8598 368.93363,1148.8598 372.1409,1014.1542 L 376.63107,825.56617 L 129.67156,825.56617 z "
       style="fill:#ffffff;fill-opacity:1;fill-rule:evenodd;stroke:#000000;stroke-width:2;stroke-linecap:butt;stroke-miterlimit:4;stroke-dashoffset:0;stroke-opacity:1"
       id="path3282" />
    <path
       d="M -71.267684,41.937424 L -80.033121,14.99771 L -107.74632,20.876478 L -88.798557,-0.18447081 L -107.74632,-21.245417 L -80.033121,-15.366652 L -71.267686,-42.306366 L -62.502249,-15.366652 L -34.789055,-21.245419 L -53.736813,-0.18447089 L -34.789053,20.876476 L -62.502249,14.99771 L -71.267684,41.937424 z "
       transform="translate(250.76642,913.48431)"
       style="fill:#000000;fill-opacity:1;fill-rule:evenodd;stroke:none;stroke-width:1pt;stroke-linecap:butt;stroke-linejoin:miter;stroke-opacity:1"
       id="path26724" />
    <path
       d="M -71.267684,41.937424 L -80.033121,14.99771 L -107.74632,20.876478 L -88.798557,-0.18447081 L -107.74632,-21.245417 L -80.033121,-15.366652 L -71.267686,-42.306366 L -62.502249,-15.366652 L -34.789055,-21.245419 L -53.736813,-0.18447089 L -34.789053,20.876476 L -62.502249,14.99771 L -71.267684,41.937424 z "
       transform="translate(398.07157,913.48431)"
       style="fill:#000000;fill-opacity:1;fill-rule:evenodd;stroke:none;stroke-width:1pt;stroke-linecap:butt;stroke-linejoin:miter;stroke-opacity:1"
       id="path27695" />
    <path
       d="M 125.3125,0.03125 C 115.91664,107.16174 86.189696,168.82341 11.15625,218.0625 C 41.873204,313.49755 208.72054,313.49755 239.4375,218.0625 C 164.40406,168.82341 134.70834,107.16173 125.3125,0.03125 z "
       transform="translate(127.85104,825.52563)"
       style="fill:#000000;fill-opacity:1;fill-rule:evenodd;stroke:none;stroke-width:1px;stroke-linecap:butt;stroke-linejoin:miter;stroke-opacity:1"
       id="path29736" />
    <path
       d="M -71.267684,41.937424 L -80.033121,14.99771 L -107.74632,20.876478 L -88.798557,-0.18447081 L -107.74632,-21.245417 L -80.033121,-15.366652 L -71.267686,-42.306366 L -62.502249,-15.366652 L -34.789055,-21.245419 L -53.736813,-0.18447089 L -34.789053,20.876476 L -62.502249,14.99771 L -71.267684,41.937424 z "
       transform="translate(324.11873,1031.7921)"
       style="fill:#ffffff;fill-opacity:1;fill-rule:evenodd;stroke:none;stroke-width:1pt;stroke-linecap:butt;stroke-linejoin:miter;stroke-opacity:1"
       id="path27703" />
  </g>
</svg>

<?xml version="1.0" encoding="UTF-8"?>
<svg version="1.0" viewBox="0 0 250 291.62" xmlns="http://www.w3.org/2000/svg" xmlns:cc="http://creativecommons.org/ns#" xmlns:dc="http://purl.org/dc/elements/1.1/" xmlns:rdf="http://www.w3.org/1999/02/22-rdf-syntax-ns#">
<metadata>
<rdf:RDF>
<cc:Work rdf:about="">
<dc:format>image/svg+xml</dc:format>
<dc:type rdf:resource="http://purl.org/dc/dcmitype/StillImage"/>
</cc:Work>
</rdf:RDF>
</metadata>
<g transform="translate(-127.85 -824.57)" fill-rule="evenodd">
<path d="m129.67 825.57 4.4902 188.59c3.2073 134.71 234.77 134.71 237.98 0l4.4902-188.59h-246.96z" fill="#fff" stroke="#000" stroke-width="2"/>
<path transform="translate(250.77 913.48)" d="m-71.268 41.937-8.7654-26.94-27.713 5.8788 18.948-21.061-18.948-21.061 27.713 5.8788 8.7654-26.94 8.7654 26.94 27.713-5.8788-18.948 21.061 18.948 21.061-27.713-5.8788-8.7654 26.94z"/>
<path transform="translate(398.07 913.48)" d="m-71.268 41.937-8.7654-26.94-27.713 5.8788 18.948-21.061-18.948-21.061 27.713 5.8788 8.7654-26.94 8.7654 26.94 27.713-5.8788-18.948 21.061 18.948 21.061-27.713-5.8788-8.7654 26.94z"/>
<path transform="translate(127.85 825.53)" d="m125.31 0.03125c-9.3959 107.13-39.123 168.79-114.16 218.03 30.717 95.435 197.56 95.435 228.28 0-75.033-49.239-104.73-110.9-114.12-218.03z"/>
<path transform="translate(324.12 1031.8)" d="m-71.268 41.937-8.7654-26.94-27.713 5.8788 18.948-21.061-18.948-21.061 27.713 5.8788 8.7654-26.94 8.7654 26.94 27.713-5.8788-18.948 21.061 18.948 21.061-27.713-5.8788-8.7654 26.94z" fill="#fff"/>
</g>
</svg>
